src/assets/cashback-icon.svg

<svg width="16" height="17" viewBox="0 0 16 17" fill="none" xmlns="http://www.w3.org/2000/svg">
<path d="M13.7056 8.31782C13.7056 11.5141 11.1055 14.1142 7.90927 14.1142C4.98859 14.1142 2.51504 11.9334 2.15666 9.04186C2.12288 8.76894 2.31631 8.52119 2.58857 8.4874C2.8615 8.45428 3.10925 8.64639 3.14237 8.91931C3.43981 11.3147 5.48873 13.1205 7.90927 13.1205C10.5577 13.1205 12.712 10.9662 12.712 8.31782C12.712 5.66939 10.5577 3.51514 7.90927 3.51514C6.81426 3.51514 5.77689 3.88147 4.94155 4.54192H5.56689C5.84114 4.54192 6.06372 4.7645 6.06372 5.03875C6.06372 5.313 5.84114 5.53558 5.56689 5.53558H3.69352C3.41927 5.53558 3.19669 5.313 3.19669 5.03875V3.16471C3.19669 2.89046 3.41927 2.66788 3.69352 2.66788C3.96777 2.66788 4.19035 2.89046 4.19035 3.16471V3.87948C5.22176 3.0097 6.5261 2.52148 7.90927 2.52148C11.1055 2.52148 13.7056 5.12155 13.7056 8.31782ZM7.94902 5.17124C7.67477 5.17124 7.45219 5.39382 7.45219 5.66807V5.85156C6.65925 5.94099 6.05047 6.64649 6.13527 7.47983C6.2141 8.25555 6.92622 8.81465 7.70591 8.81465H8.28024C8.55449 8.81465 8.77707 9.03789 8.77707 9.31147C8.77707 9.58506 8.55449 9.8083 8.28024 9.8083H7.12164C6.84739 9.8083 6.62481 10.0309 6.62481 10.3051C6.62481 10.5794 6.84739 10.802 7.12164 10.802H7.45219V10.9676C7.45219 11.2418 7.67477 11.4644 7.94902 11.4644C8.22327 11.4644 8.44585 11.2418 8.44585 10.9676V10.7794C9.12021 10.6734 9.69256 10.1574 9.76278 9.46715C9.85353 8.57551 9.15333 7.82099 8.28024 7.82099H7.6178C7.34355 7.82099 7.12097 7.59841 7.12097 7.32416C7.12097 7.04991 7.34355 6.82733 7.6178 6.82733H8.77972C9.05397 6.82733 9.27655 6.60475 9.27655 6.3305C9.27655 6.05625 9.05397 5.83367 8.77972 5.83367H8.44585V5.66807C8.44585 5.39382 8.22327 5.17124 7.94902 5.17124Z" fill="#9390A0"/>
</svg>

<svg width="16" height="17" fill="none" xmlns="http://www.w3.org/2000/svg"><path d="M13.706 8.318c0 3.196-2.6 5.796-5.797 5.796a5.8 5.8 0 01-5.752-5.072.497.497 0 11.985-.123 4.805 4.805 0 009.57-.601 4.808 4.808 0 00-4.803-4.803 4.769 4.769 0 00-2.967 1.027h.625a.497.497 0 010 .994H3.694a.497.497 0 01-.497-.497V3.165a.497.497 0 01.993 0v.714a5.748 5.748 0 013.72-1.358c3.195 0 5.796 2.6 5.796 5.797zM7.949 5.17a.497.497 0 00-.497.497v.184A1.486 1.486 0 006.135 7.48c.08.776.791 1.335 1.57 1.335h.575a.497.497 0 010 .993H7.122a.497.497 0 000 .994h.33v.166a.497.497 0 00.994 0v-.189c.674-.106 1.247-.622 1.317-1.312A1.492 1.492 0 008.28 7.821h-.662a.497.497 0 010-.994H8.78a.497.497 0 000-.993h-.334v-.166a.497.497 0 00-.497-.497z" fill="#9390A0"/></svg>
